X:136
T:John Ryan's
M:2/4
L:1/16
R:Polka
K:D
|:A|"D"d2d2 BcdB|"G"A2F2 A2F2|"D"d2d2 BcdB|"A"A2F2 (3EFED2|"D"d2d2 BcdB|"G"A2F2 A2de|"D"f2d2 "A"e2c2|"G"d4"D"d3:|!
|:e|"D"f2d2 d2ef|"G"g2f2 e2de|"D"f2d2 A2d2|"G"f2df "A"a3g|"D"f2d2 d2ef|"G"g2f2 e2de|"D"f2d2 "A"e2c2|"G"d4 "D"d3:|

